client/public/img/killfeed/rgs_killfeed.svg

<?xml version="1.0" encoding="UTF-8" standalone="no"?>
<svg
   width="77.995155"
   height="16.000002"
   viewBox="0 0 77.995155 16.000002"
   fill="none"
   version="1.1"
   id="svg12"
   xmlns="http://www.w3.org/2000/svg"
   xmlns:svg="http://www.w3.org/2000/svg">
  <defs
     id="defs12" />
  <path
     d="M 68.570951,5.4697337 68.186688,5.1663826 68.47656,4.7416831 68.102396,4.2276721 77.489501,1.5193902 73.458286,4.3776578 77.995153,4.9304351 73.640268,5.7326486 76.586187,8.3751867 68.144492,6.2146327 Z"
     fill="#d9d9d9"
     id="path1"
     style="stroke-width:0.999905" />
  <path
     d="m 28.432577,1.9802763 -1.227183,0.012459 0.0038,2.1204779 1.134991,0.014958 0.0025,-2.0644132 z"
     fill="#d9d9d9"
     id="path2"
     style="stroke-width:0.999905" />
  <path
     d="m 31.467688,1.9458695 1.293276,-0.012459 V 4.173487 l -1.177387,-0.012449 0.0025,-2.09806 z"
     fill="#d9d9d9"
     id="path3"
     style="stroke-width:0.999905" />
  <path
     d="m 29.000223,0 h 1.881721 v 0.3065758 h 0.218479 v 1.6844094 l 0.195581,0.1902819 -0.0018,2.0121282 -0.218479,0.1955814 H 28.82044 L 28.594962,4.1916455 V 2.1724679 L 28.790543,1.9909852 V 0.2995265 h 0.21318 z"
     fill="#d9d9d9"
     id="path4"
     style="stroke-width:0.999905" />
  <path
     d="M 25.56695,1.9299311 H 24.583744 L 24.326468,1.7784055 h -0.458056 l -0.140987,0.059904 h -0.602542 l -0.433459,-0.084572 h -3.344181 v 2.6041418 h 3.372379 l 0.41936,-0.098671 h 0.595543 l 0.137387,0.073993 h 0.468655 l 0.264275,-0.1620946 h 0.958508 z"
     fill="#d9d9d9"
     id="path5"
     style="stroke-width:0.999905" />
  <path
     d="m 25.833825,4.6365631 h 1.105694 v -2.843769 h -1.106494 z"
     fill="#d9d9d9"
     id="path6"
     style="stroke-width:0.999905" />
  <path
     d="m 33.031339,4.2083439 h 1.102595 V 1.7303001 h -1.103895 z"
     fill="#d9d9d9"
     id="path7"
     style="stroke-width:0.999905" />
  <path
     d="M 34.403908,1.9157924 37.091352,1.5389183 H 41.20266 V 4.5695095 H 37.083852 L 34.410207,4.1882658 Z"
     fill="#d9d9d9"
     id="path8"
     style="stroke-width:0.999905" />
  <path
     d="m 26.060203,6.4021848 5.965932,-0.014089 c 0.41516,0.00423 0.645138,-0.049145 0.926711,-0.408771 L 50.205702,5.811951 c 0.726331,0.022088 0.888315,0.2135897 0.921512,0.9021141 0.0108,0.8719269 -0.235678,0.9929753 -1.0448,1.0518697 l -1.314375,0.093381 0.0176,0.1850024 c 0.0286,0.3895228 -0.513551,0.3872231 -0.535649,0.063434 l -0.0194,-0.2149695 -17.483634,1.2051652 -3.862131,0.1585951 0.06249,1.373369 -0.153286,0.588544 c -0.0506,0.149086 -0.172083,0.254775 -0.191182,-0.022 l -0.0202,-0.488054 c -0.248076,-0.0028 -0.329768,0.06309 -0.541848,0.230778 -0.497253,0.351167 -0.926812,0.508552 -1.457061,0.53035 l -0.877516,0.0035 C 22.837204,11.41934 22.66862,10.63871 22.617425,10.451128 22.426543,9.762594 21.769906,9.612608 21.426339,9.742795 c -3.187496,1.16069 -3.090306,2.188992 -3.372379,3.682449 -1.038101,0.178683 -2.009708,-0.301371 -2.847228,-0.683634 -0.869717,-0.469856 -1.560352,-0.354867 -2.396272,0.0141 l -5.1223421,1.914518 0.1164889,0.257275 c 0.1635544,0.427459 -0.345617,0.559147 -0.5094214,0.183083 L 7.183752,14.858109 4.9258272,15.705228 C 4.58206,15.843315 4.1506711,15.992901 3.7611982,15.9977 L 3.144517,15.990601 2.8273672,7.6883922 15.941468,7.08225 c 0.509851,-0.018728 0.94051,0.038836 1.270778,0.2641248 0.571546,0.3437772 1.172689,0.3516265 1.990911,0.084722 l 3.279087,-1.1686286 2.1031,-0.012459 -0.0026,0.441038 c -8e-4,0.2732439 -0.05049,0.3408075 -0.156985,0.4921231 -0.11029,0.1394267 -0.323069,0.4891733 -0.463456,0.9431201 -0.83712,0.3661651 -0.723431,1.2674396 -0.279073,1.5972076 -0.124588,0.356166 -0.10749,0.674636 0.04979,0.955609 0.08189,0.200781 -0.07009,0.280873 -0.21428,0.171884 -0.240377,-0.217979 -0.433158,-0.694234 -0.237177,-1.377769 -0.444158,0.495453 -0.366565,1.556352 0.401662,1.545953 l 1.290977,-0.0516 c 1.013303,-0.08319 1.328673,-0.907414 0.503052,-1.641544 l -0.336368,0.0125 C 25.261774,9.0279604 25.197276,8.6927824 25.037496,8.4701536 25.166283,8.2089485 25.270473,7.9461235 25.594443,7.6977172 25.93681,7.4630296 26.0452,7.0884853 26.067797,6.6785843 Z"
     fill="#d9d9d9"
     id="path9"
     style="stroke-width:0.999905" />
  <path
     d="m 27.166798,9.519718 3.608456,-0.151586 1.751433,-0.126788 0.162084,5.2435 -5.299895,0.542649 z"
     fill="#d9d9d9"
     id="path10"
     style="stroke-width:0.999905" />
  <path
     d="m 2.5490437,7.690672 0.3277188,8.302229 -1.6914588,0.0071 C 0.49872925,15.987801 0.47641135,15.640334 0.45939295,15.333963 L 0.00129063,8.7725089 C -0.02062128,8.1426689 0.23369445,7.6979913 0.97740355,7.690682 Z"
     fill="#d9d9d9"
     id="path11"
     style="stroke-width:0.999905" />
  <path
     d="m 22.489543,5.4742732 v 0.5207804 l 2.365375,-0.017548 v 0.7012531 c -0.0057,0.3120003 -0.09309,0.4904633 -0.197381,0.6413389 -0.256176,0.3202695 -0.377164,0.6765655 -0.486254,1.0360213 -0.354466,0.078222 -0.408861,0.1914617 -0.509751,0.4017717 l -0.0017,0.00347 C 23.534944,9.0881695 23.560442,9.351835 23.9951,9.600011 24.269974,9.721199 24.605442,9.7147 24.845919,9.360434 24.981806,9.0897193 24.983506,8.7333733 24.735029,8.5358321 25.026302,7.833919 25.173788,7.6750042 25.482158,7.4469559 25.651042,7.3178582 25.77563,7.1334458 25.799228,6.8126564 v -0.671286 l 6.110418,-0.019398 0.0086,-2.9e-4 C 32.50639,6.1018744 32.510989,6.1017244 32.824059,5.716731 L 50.148007,5.5440566 c 0.802224,-0.022368 1.110494,0.2943519 1.210385,0.7873849 l 13.247937,-0.2286082 0.241677,0.068513 0.346067,0.00311 0.100691,0.022828 v 0.065634 h 1.420064 V 6.148399 l 0.07409,-0.068714 H 66.9809 V 5.0269259 H 66.79682 L 66.711329,4.941464 V 3.7574569 h -0.63604 l -0.280173,0.079282 -0.20968,0.1620946 -0.10219,0.1709137 v 0.429909 l -0.037,0.1092396 -0.147986,0.1286177 v 0.026438 h -0.480951 l -0.227178,0.089541 -17.688914,0.089711 C 46.600445,4.9230058 46.387466,4.8976982 46.201083,4.9011679 V 3.82961 H 45.796622 V 4.259359 H 45.392161 V 3.82961 H 44.987599 V 4.259359 H 44.583138 V 3.82961 H 44.178676 V 4.259359 H 43.774215 V 3.82961 H 43.369753 V 4.259359 H 42.965292 V 3.82961 H 42.56083 V 4.259359 H 42.156369 V 3.82961 h -0.404461 v 0.429749 h -0.277474 v 0.1110694 h -2e-4 v 0.4684554 h -4.40298 L 34.492299,4.4775782 H 32.49139 V 4.8438633 C 32.112026,4.9885495 31.819654,5.099499 31.479487,5.1005189 H 27.600156 V 4.9161164 h -2.683644 c -0.398362,-0.00368 -0.658637,0.1224084 -0.802323,0.3314084 h -0.378764 c -0.277974,0.00919 -0.381164,0.096041 -0.481654,0.1806128 -0.0186,0.015629 -0.0371,0.031167 -0.0566,0.046136 z"
     fill="#d9d9d9"
     id="path12"
     style="stroke-width:0.999905" />
</svg>

<svg xmlns="http://www.w3.org/2000/svg" width="77.995" height="16" fill="none"><path fill="#d9d9d9" d="m68.571 5.47-.384-.304.29-.424-.375-.514 9.388-2.709-4.032 2.859 4.537.552-4.355.803 2.946 2.642-8.442-2.16ZM28.433 1.98l-1.228.013.004 2.12 1.135.015.003-2.064zm3.035-.034 1.293-.013v2.24l-1.177-.012.002-2.098zM29 0h1.882v.307h.218V1.99l.196.19-.002 2.012-.218.196H28.82l-.225-.197v-2.02l.196-.181V.3h.213zm-3.433 1.93h-.983l-.258-.152h-.458l-.14.06h-.603l-.434-.084h-3.344v2.604h3.373l.419-.099h.596l.137.074h.469l.264-.162h.958zm.267 2.707h1.106V1.793h-1.107zm7.197-.429h1.103V1.73H33.03zm1.373-2.292 2.687-.377h4.112v3.03h-4.12l-2.673-.38ZM26.06 6.402l5.966-.014c.415.004.645-.049.927-.409l17.253-.167c.726.022.888.214.921.902.011.872-.235.993-1.045 1.052l-1.314.093.018.185c.028.39-.514.388-.536.064l-.02-.215-17.483 1.205-3.862.159.062 1.373-.153.588c-.05.15-.172.255-.191-.022l-.02-.488c-.248-.002-.33.063-.542.231-.497.351-.927.509-1.457.53l-.878.004c-.869-.054-1.037-.834-1.089-1.022-.19-.688-.847-.838-1.19-.708-3.188 1.16-3.091 2.189-3.373 3.682-1.038.179-2.01-.301-2.847-.683-.87-.47-1.56-.355-2.397.014L7.688 14.67l.117.258c.163.427-.346.559-.51.183l-.111-.253-2.258.847c-.344.138-.775.288-1.165.293l-.616-.007-.318-8.303 13.114-.606c.51-.018.941.04 1.271.264.572.344 1.173.352 1.991.085l3.28-1.169 2.102-.012-.002.441c-.001.273-.05.34-.157.492-.11.14-.323.49-.464.943-.837.366-.723 1.268-.279 1.597q-.186.535.05.956c.082.2-.07.281-.214.172-.24-.218-.433-.694-.237-1.378-.445.496-.367 1.557.401 1.546l1.291-.051c1.014-.084 1.329-.908.503-1.642l-.336.013a.93.93 0 0 0-.104-.869c.13-.261.233-.524.557-.772.343-.235.451-.61.474-1.02Z" style="stroke-width:.999905"/><path fill="#d9d9d9" d="m27.167 9.52 3.608-.152 1.752-.127.162 5.244-5.3.542zM2.549 7.69l.328 8.303L1.185 16c-.686-.012-.709-.36-.726-.666L.001 8.773c-.022-.63.233-1.075.976-1.082ZM22.49 5.474v.521l2.365-.017v.7a1.07 1.07 0 0 1-.197.642c-.257.32-.378.677-.487 1.036-.354.078-.409.192-.51.402l-.001.003c-.125.327-.1.59.335.839.275.121.61.115.85-.24.137-.27.139-.627-.11-.824.291-.702.439-.861.747-1.089.169-.13.294-.314.317-.634V6.14l6.11-.019h.01c.587-.02.592-.02.905-.405l17.324-.173c.802-.022 1.11.294 1.21.787l13.248-.228.242.068.346.003.1.023v.066h1.42v-.115l.075-.068h.192V5.027h-.184l-.086-.086V3.757h-.636l-.28.08-.21.162-.102.17v.43l-.037.11-.148.129v.026h-.48l-.228.09-17.689.09a1.7 1.7 0 0 0-.7-.143V3.83h-.404v.43h-.405v-.43h-.404v.43h-.405v-.43h-.404v.43h-.405v-.43h-.404v.43h-.405v-.43h-.404v.43h-.405v-.43h-.404v.43h-.278v.579h-4.403l-2.579-.361h-2v.366c-.38.145-.672.255-1.013.257H27.6v-.185h-2.683c-.399-.004-.66.123-.803.332h-.379c-.278.009-.38.096-.481.18l-.057.046z" style="stroke-width:.999905"/></svg>
